src/assets/icons/order-book-AMM.svg

<svg width="24" height="24" viewBox="0 0 24 24" fill="none" xmlns="http://www.w3.org/2000/svg">
<path d="M19.5162 16.5162C18.9873 16.524 18.4698 16.6714 18.0162 16.9437L15.6987 14.6262C16.8074 13.0656 16.8074 10.9743 15.6987 9.4137L18.0162 7.0887C19.3183 7.85136 20.9843 7.52807 21.9067 6.33372C22.8291 5.13938 22.7208 3.44577 21.6537 2.37871C20.5866 1.31164 18.893 1.20329 17.6987 2.12567C16.5043 3.04805 16.181 4.71405 16.9437 6.0162L14.6262 8.3337C13.0656 7.22495 10.9743 7.22495 9.4137 8.3337L7.0887 6.0162C7.85136 4.71405 7.52807 3.04805 6.33372 2.12567C5.13938 1.20329 3.44577 1.31164 2.37871 2.37871C1.31164 3.44577 1.20329 5.13938 2.12567 6.33372C3.04805 7.52807 4.71405 7.85136 6.0162 7.0887L8.3337 9.4062C7.22495 10.9668 7.22495 13.0581 8.3337 14.6187L6.0162 16.9437C4.71405 16.181 3.04805 16.5043 2.12567 17.6987C1.20329 18.893 1.31164 20.5866 2.37871 21.6537C3.44577 22.7208 5.13938 22.8291 6.33372 21.9067C7.52807 20.9843 7.85136 19.3183 7.0887 18.0162L9.4062 15.6987C10.9668 16.8074 13.0581 16.8074 14.6187 15.6987L16.9437 18.0162C16.2637 19.1942 16.4612 20.6823 17.4251 21.642C18.389 22.6017 19.878 22.7928 21.053 22.1077C22.228 21.4226 22.795 20.0326 22.4346 18.721C22.0741 17.4095 20.8763 16.5046 19.5162 16.5162ZM19.5162 3.0162C20.3446 3.0162 21.0162 3.68777 21.0162 4.5162C21.0162 5.34463 20.3446 6.0162 19.5162 6.0162C18.6878 6.0162 18.0162 5.34463 18.0162 4.5162C18.0162 3.68777 18.6878 3.0162 19.5162 3.0162ZM3.0162 4.5162C3.0162 3.68777 3.68777 3.0162 4.5162 3.0162C5.34463 3.0162 6.0162 3.68777 6.0162 4.5162C6.0162 5.34463 5.34463 6.0162 4.5162 6.0162C4.11837 6.0162 3.73684 5.85816 3.45554 5.57686C3.17423 5.29555 3.0162 4.91402 3.0162 4.5162ZM4.5162 21.0162C3.68777 21.0162 3.0162 20.3446 3.0162 19.5162C3.0162 18.6878 3.68777 18.0162 4.5162 18.0162C5.34463 18.0162 6.0162 18.6878 6.0162 19.5162C6.0162 20.3446 5.34463 21.0162 4.5162 21.0162ZM12.0162 15.0162C10.3593 15.0162 9.0162 13.6731 9.0162 12.0162C9.0162 10.3593 10.3593 9.0162 12.0162 9.0162C13.6731 9.0162 15.0162 10.3593 15.0162 12.0162C15.0162 12.8118 14.7001 13.5749 14.1375 14.1375C13.5749 14.7001 12.8118 15.0162 12.0162 15.0162ZM19.5162 21.0162C18.6878 21.0162 18.0162 20.3446 18.0162 19.5162C18.0162 18.6878 18.6878 18.0162 19.5162 18.0162C20.3446 18.0162 21.0162 18.6878 21.0162 19.5162C21.0162 20.3446 20.3446 21.0162 19.5162 21.0162Z" fill="#39D0D8"/>
</svg>

<?xml version="1.0" encoding="utf-8"?>
<!-- Generator: Adobe Illustrator 26.0.3, SVG Export Plug-In . SVG Version: 6.00 Build 0)  -->
<svg version="1.1" id="Layer_1" xmlns="http://www.w3.org/2000/svg" xmlns:xlink="http://www.w3.org/1999/xlink" x="0px" y="0px"
	 viewBox="0 0 24 24" style="enable-background:new 0 0 24 24;" xml:space="preserve">
<style type="text/css">
	.st0{fill:#004BAF;}
</style>
<path class="st0" d="M19.5,16.5c-0.5,0-1,0.2-1.5,0.4l-2.3-2.3c1.1-1.6,1.1-3.7,0-5.2L18,7.1c1.3,0.8,3,0.4,3.9-0.8
	c0.9-1.2,0.8-2.9-0.3-4c-1.1-1.1-2.8-1.2-4-0.3C16.5,3,16.2,4.7,16.9,6l-2.3,2.3c-1.6-1.1-3.7-1.1-5.2,0L7.1,6
	c0.8-1.3,0.4-3-0.8-3.9c-1.2-0.9-2.9-0.8-4,0.3c-1.1,1.1-1.2,2.8-0.3,4C3,7.5,4.7,7.9,6,7.1l2.3,2.3c-1.1,1.6-1.1,3.7,0,5.2L6,16.9
	c-1.3-0.8-3-0.4-3.9,0.8c-0.9,1.2-0.8,2.9,0.3,4c1.1,1.1,2.8,1.2,4,0.3C7.5,21,7.9,19.3,7.1,18l2.3-2.3c1.6,1.1,3.7,1.1,5.2,0
	l2.3,2.3c-0.7,1.2-0.5,2.7,0.5,3.6s2.5,1.2,3.6,0.5c1.2-0.7,1.7-2.1,1.4-3.4C22.1,17.4,20.9,16.5,19.5,16.5z M19.5,3
	C20.3,3,21,3.7,21,4.5S20.3,6,19.5,6C18.7,6,18,5.3,18,4.5S18.7,3,19.5,3z M3,4.5C3,3.7,3.7,3,4.5,3S6,3.7,6,4.5S5.3,6,4.5,6
	C4.1,6,3.7,5.9,3.5,5.6C3.2,5.3,3,4.9,3,4.5z M4.5,21C3.7,21,3,20.3,3,19.5C3,18.7,3.7,18,4.5,18S6,18.7,6,19.5
	C6,20.3,5.3,21,4.5,21z M12,15c-1.7,0-3-1.3-3-3s1.3-3,3-3s3,1.3,3,3c0,0.8-0.3,1.6-0.9,2.1S12.8,15,12,15z M19.5,21
	c-0.8,0-1.5-0.7-1.5-1.5c0-0.8,0.7-1.5,1.5-1.5c0.8,0,1.5,0.7,1.5,1.5C21,20.3,20.3,21,19.5,21z"/>
</svg>
